**harm	**harte	**timestamp	**phrase	**leadinstrument	**kern
*M4/4	*M4/4	*	*	*	*
*D:	*D:	*	*	*	*D:
1r;	N	0	.	r	1r;
=1	=1	=1	=1	=1	=1
*>A_intro	*>A_intro	*>A_intro	*>A_intro	*>A_intro	*>A_intro
1I	D:maj	0.584	newline	voice	1D 1f# 1a
=2	=2	=2	=2	=2	=2
1I	D:maj	3.21	.	voice	1D 1f# 1a
=3	=3	=3	=3	=3	=3
1vi	B:min	5.836	.	voice	1B 1dd 1ff#
=4	=4	=4	=4	=4	=4
1vi	B:min	8.463	.	voice	1B 1dd 1ff#
=5	=5	=5	=5	=5	=5
1IV	G:maj	11.089	newline	voice	1G 1b 1dd
=6	=6	=6	=6	=6	=6
1IV	G:maj	14.133	.	voice	1G 1b 1dd
=7	=7	=7	=7	=7	=7
1V	A:maj	17.178	.	voice	1A 1cc# 1ee
=8	=8	=8	=8	=8	=8
1V	A:maj	20.222	.	voice	1A 1cc# 1ee
=9	=9	=9	=9	=9	=9
*>B2_chorus	*>B2_chorus	*>B2_chorus	*>B2_chorus	*>B2_chorus	*>B2_chorus
1I	D:maj	23.266	newline	voice	1D 1f# 1a
=10	=10	=10	=10	=10	=10
1I	D:maj	24.773	.	voice	1D 1f# 1a
=11	=11	=11	=11	=11	=11
1vi	B:min	26.279	.	voice	1B 1dd 1ff#
=12	=12	=12	=12	=12	=12
1vi	B:min	27.786	.	voice	1B 1dd 1ff#
=13	=13	=13	=13	=13	=13
1IV	G:maj	29.292	newline	voice	1G 1b 1dd
=14	=14	=14	=14	=14	=14
1IV	G:maj	30.803	.	voice	1G 1b 1dd
=15	=15	=15	=15	=15	=15
1V	A:maj	32.313	.	voice	1A 1cc# 1ee
=16	=16	=16	=16	=16	=16
1V	A:maj	33.824	.	voice	1A 1cc# 1ee
=17	=17	=17	=17	=17	=17
1I	D:maj	35.334	newline	voice	1D 1f# 1a
=18	=18	=18	=18	=18	=18
1I	D:maj	36.849	.	voice	1D 1f# 1a
=19	=19	=19	=19	=19	=19
1vi	B:min	38.364	.	voice	1B 1dd 1ff#
=20	=20	=20	=20	=20	=20
1vi	B:min	39.879	.	voice	1B 1dd 1ff#
=21	=21	=21	=21	=21	=21
1IV	G:maj	41.394	newline	voice	1G 1b 1dd
=22	=22	=22	=22	=22	=22
1IV	G:maj	42.89	.	voice	1G 1b 1dd
=23	=23	=23	=23	=23	=23
4V	A:maj	44.386	.	voice	4A 4cc# 4ee
2.r	N	44.76	.	voice	2r
=24	=24	=24	=24	=24	=24
1r	N	45.882	.	voice	1r
=25	=25	=25	=25	=25	=25
*>B_chorus	*>B_chorus	*>B_chorus	*>B_chorus	*>B_chorus	*>B_chorus
1I	D:maj	47.378	newline	voice	1D 1f# 1a
=26	=26	=26	=26	=26	=26
1I	D:maj	48.889	.	voice	1D 1f# 1a
=27	=27	=27	=27	=27	=27
1vi	B:min	50.4	.	voice	1B 1dd 1ff#
=28	=28	=28	=28	=28	=28
1vi	B:min	51.911	.	voice	1B 1dd 1ff#
=29	=29	=29	=29	=29	=29
1IV	G:maj	53.422	newline	voice	1G 1b 1dd
=30	=30	=30	=30	=30	=30
1IV	G:maj	54.939	.	voice	1G 1b 1dd
=31	=31	=31	=31	=31	=31
4V	A:maj	56.456	.	voice	4A 4cc# 4ee
2.r	N	56.835	.	voice	2r
=32	=32	=32	=32	=32	=32
1r	N	57.973	.	voice	1r
=33	=33	=33	=33	=33	=33
1I	D:maj	59.49	newline	voice	1D 1f# 1a
=34	=34	=34	=34	=34	=34
1I	D:maj	60.982	.	voice	1D 1f# 1a
=35	=35	=35	=35	=35	=35
1vi	B:min	62.474	.	voice	1B 1dd 1ff#
=36	=36	=36	=36	=36	=36
1vi	B:min	63.966	.	voice	1B 1dd 1ff#
=37	=37	=37	=37	=37	=37
1IV	G:maj	65.458	newline	voice	1G 1b 1dd
=38	=38	=38	=38	=38	=38
1IV	G:maj	66.971	.	voice	1G 1b 1dd
=39	=39	=39	=39	=39	=39
4V	A:maj	68.484	.	voice	4A 4cc# 4ee
2.r	N	68.862	.	voice	2r
=40	=40	=40	=40	=40	=40
1r	N	69.996	.	voice	1r
=41	=41	=41	=41	=41	=41
*>B2_chorus	*>B2_chorus	*>B2_chorus	*>B2_chorus	*>B2_chorus	*>B2_chorus
1I	D:maj	71.509	newline	voice	1D 1f# 1a
=42	=42	=42	=42	=42	=42
1I	D:maj	73.026	.	voice	1D 1f# 1a
=43	=43	=43	=43	=43	=43
1vi	B:min	74.543	.	voice	1B 1dd 1ff#
=44	=44	=44	=44	=44	=44
1vi	B:min	76.06	.	voice	1B 1dd 1ff#
=45	=45	=45	=45	=45	=45
1IV	G:maj	77.576	newline	voice	1G 1b 1dd
=46	=46	=46	=46	=46	=46
1IV	G:maj	79.086	.	voice	1G 1b 1dd
=47	=47	=47	=47	=47	=47
4V	A:maj	80.596	.	voice	4A 4cc# 4ee
2.r	N	80.973	.	voice	2r
=48	=48	=48	=48	=48	=48
1r	N	82.106	.	voice	1r
=49	=49	=49	=49	=49	=49
*>C_bridge	*>C_bridge	*>C_bridge	*>C_bridge	*>C_bridge	*>C_bridge
1IV	G:maj	83.615	newline	voice	1G 1b 1dd
=50	=50	=50	=50	=50	=50
1IV	G:maj	85.149	.	voice	1G 1b 1dd
=51	=51	=51	=51	=51	=51
1I	D:maj	86.683	.	voice	1D 1f# 1a
=52	=52	=52	=52	=52	=52
1I	D:maj	88.217	.	voice	1D 1f# 1a
=53	=53	=53	=53	=53	=53
1IV	G:maj	89.751	newline	voice	1G 1b 1dd
=54	=54	=54	=54	=54	=54
1IV	G:maj	91.256	.	voice	1G 1b 1dd
=55	=55	=55	=55	=55	=55
4V	A:maj	92.76	.	voice	4A 4cc# 4ee
2.r	N	93.136	.	voice	2r
=56	=56	=56	=56	=56	=56
1r	N	94.264	.	voice	1r
=57	=57	=57	=57	=57	=57
*>B_chorus	*>B_chorus	*>B_chorus	*>B_chorus	*>B_chorus	*>B_chorus
1I	D:maj	95.769	newline	voice	1D 1f# 1a
=58	=58	=58	=58	=58	=58
1I	D:maj	97.287	.	voice	1D 1f# 1a
=59	=59	=59	=59	=59	=59
1vi	B:min	98.805	.	voice	1B 1dd 1ff#
=60	=60	=60	=60	=60	=60
1vi	B:min	100.324	.	voice	1B 1dd 1ff#
=61	=61	=61	=61	=61	=61
1IV	G:maj	101.842	newline	voice	1G 1b 1dd
=62	=62	=62	=62	=62	=62
1IV	G:maj	103.349	.	voice	1G 1b 1dd
=63	=63	=63	=63	=63	=63
4V	A:maj	104.857	.	voice	4A 4cc# 4ee
2.r	N	105.234	.	voice	2r
=64	=64	=64	=64	=64	=64
1r	N	106.365	.	voice	1r
=65	=65	=65	=65	=65	=65
1I	D:maj	107.873	newline	voice	1D 1f# 1a
=66	=66	=66	=66	=66	=66
1I	D:maj	109.382	.	voice	1D 1f# 1a
=67	=67	=67	=67	=67	=67
1vi	B:min	110.891	.	voice	1B 1dd 1ff#
=68	=68	=68	=68	=68	=68
1vi	B:min	112.4	.	voice	1B 1dd 1ff#
=69	=69	=69	=69	=69	=69
1IV	G:maj	113.909	newline	voice	1G 1b 1dd
=70	=70	=70	=70	=70	=70
1IV	G:maj	115.413	.	voice	1G 1b 1dd
=71	=71	=71	=71	=71	=71
4V	A:maj	116.916	.	voice	4A 4cc# 4ee
2.r	N	117.292	.	voice	2r
=72	=72	=72	=72	=72	=72
1r	N	118.42	.	voice	1r
=73	=73	=73	=73	=73	=73
*>C_bridge	*>C_bridge	*>C_bridge	*>C_bridge	*>C_bridge	*>C_bridge
1IV	G:maj	119.924	newline	voice	1G 1b 1dd
=74	=74	=74	=74	=74	=74
1IV	G:maj	121.418	.	voice	1G 1b 1dd
=75	=75	=75	=75	=75	=75
1I	D:maj	122.911	.	voice	1D 1f# 1a
=76	=76	=76	=76	=76	=76
1I	D:maj	124.405	.	voice	1D 1f# 1a
=77	=77	=77	=77	=77	=77
1IV	G:maj	125.898	newline	voice	1G 1b 1dd
=78	=78	=78	=78	=78	=78
1IV	G:maj	127.413	.	voice	1G 1b 1dd
=79	=79	=79	=79	=79	=79
4V	A:maj	128.929	.	voice	4A 4cc# 4ee
2.r	N	129.308	.	voice	2r
=80	=80	=80	=80	=80	=80
1r	N	130.444	.	voice	1r
=81	=81	=81	=81	=81	=81
*>B_chorus	*>B_chorus	*>B_chorus	*>B_chorus	*>B_chorus	*>B_chorus
1I	D:maj	131.959	newline	voice	1D 1f# 1a
=82	=82	=82	=82	=82	=82
1I	D:maj	133.478	.	voice	1D 1f# 1a
=83	=83	=83	=83	=83	=83
1vi	B:min	134.997	.	voice	1B 1dd 1ff#
=84	=84	=84	=84	=84	=84
1vi	B:min	136.516	.	voice	1B 1dd 1ff#
=85	=85	=85	=85	=85	=85
1IV	G:maj	138.034	newline	voice	1G 1b 1dd
=86	=86	=86	=86	=86	=86
1IV	G:maj	139.549	.	voice	1G 1b 1dd
=87	=87	=87	=87	=87	=87
1V	A:maj	141.063	.	voice	1A 1cc# 1ee
=88	=88	=88	=88	=88	=88
1V	A:maj	142.578	.	voice	1A 1cc# 1ee
=89	=89	=89	=89	=89	=89
*>B2_chorus	*>B2_chorus	*>B2_chorus	*>B2_chorus	*>B2_chorus	*>B2_chorus
1I	D:maj	144.093	newline	saxophone	1D 1f# 1a
=90	=90	=90	=90	=90	=90
1I	D:maj	145.578	.	saxophone	1D 1f# 1a
=91	=91	=91	=91	=91	=91
1vi	B:min	147.064	.	saxophone	1B 1dd 1ff#
=92	=92	=92	=92	=92	=92
1vi	B:min	148.55	.	saxophone	1B 1dd 1ff#
=93	=93	=93	=93	=93	=93
*>_fadeout	*>_fadeout	*>_fadeout	*>_fadeout	*>_fadeout	*>_fadeout
1IV	G:maj	150.036	newline	saxophone	1G 1b 1dd
=94	=94	=94	=94	=94	=94
1IV	G:maj	151.524	.	saxophone	1G 1b 1dd
=95	=95	=95	=95	=95	=95
1V	A:maj	153.012	.	saxophone	1A 1cc# 1ee
=96	=96	=96	=96	=96	=96
1V	A:maj	154.5	.	saxophone	1A 1cc# 1ee
1r;	N	158.778	.	r	1r;
1r;	N	163.37	.	r	1r;
*-	*-	*-	*-	*-	*-
!!!OTL: Runaround Sue
!!!COC: Dion
!!!BillboardChartDate: 1961/12/18
!!!BillboardPeak: 1
!!!BillboardWeeksOnChart: 14
!!!SampleTargetRank: 22
!!!SampleActualRank: 20
!!!SampleID#: 0145
!!!RDF**harmony: **recip + pitch class of root + harmonic quality
!!!RDF**harte: Chris Harte's syntax, used by MIREX
!!!RDF**phrase: newline = linebreak in original McGill transcription
!!!RDF**timestamp: McGill audio timestamp in seconds
!!!RDF**leadinstrument: original McGill primary instrumentation annotation
!!!RDT: 2017/01/12/
!!!ENC: Nathaniel Condit-Schultz
!!!EST: Awating manual error checking and editing.
